X:244
T:B244-  The jewel in the tower
Q:1/4=120
L:1/4
M:C|
K:Am
C/2|G3/2A/2 G/2E/2 D/2C/2|EA3/4B/4A3/2":s:"G/2|\
c3/2d/2 e3/4f/4 e/2d/2|c/2B/2 A/2G/2c3/2G/2|\
c3/2d/2 e3/4f/4 e/2d/2|c/2B/2 A/2G/2cB/2A/2|\
G3/2^A/2 G/2E/2 D/2C/2|EA3/4B/4A3/2|]

